!!!OTL: Die traurige Braut (187b), S. 408
!!!id: T0366
**kern
*clefG2
*k[f#]
*D:
{8d
8f#
=1
4a
8a
8b
4a
8a
8b
=2
4a
8a
8g
4f#}
4r
=3
{4a
8a
8g
4f#
8f#
8a
=4
4g
4g
4e
4a
=5
4f#}
2r
=6
{8d
8f#
=7
4a
4a
4a
8b
8a
=8
4a
4g
4g}
=9
{8a
8g
=10
8f#
8f#
8f#
8f#
4a
8g
8f#
=11
4e}
2r
=12
{4d
=13
4d
4b
4b}
=14
{8dd
8b
=15
8b
8a
8a
8a
4a
4g
=16
4f#}
2r
==
*-
!!!minrhy: 8
!!!meters: 4/4 ]  ZZ[6
!!!cut: Die traurige Braut (187b), S. 408
!!!reg: Luxemburg
!!!trd: Singendes Volk, Esch-Alzette, 1937 posth.
!!!rhy1: XX  X_XXX_XX  X_XXX_0_
!!!rhy2: X_XXX_XX  X_X_X_X_  X_0__
!!!key: T0366  08  D 4/4 ]  ZZ[6
!!!mod: SECHSTONSKALA DUR ?]  AMBITUS[8
!!!kad: 334263
!!!akz: 5553_53423_5554_352_16_653_
!!!fot: 'a__b__aw_c__d__e__
!!!for: 'a__b__c__d__cw_e__
!!!fok: '^a_\__^a_\__/__\__
!! PHRAS[VORWIEGEND AUFTAKTIG]
!!!fkt: Hochzeits-, Ehestandslied
!!!bem1: Esch-Alzette, fff Michel Rauchs, 1915;
!!!bem2: (187c)- Rodershausen, fff Lutgen, 1930,
!!!bem3: mitgeteilt, hhh Josef Bour (Lehrer)
!! THILL; Mathias
!! PR[38] 2K[3] 2G[14] 3K[3] 3G[3] 4A[3] 4Ü[0] 5A[3] 6K[0] 6G[0]
!! 7K[0] 7G[0] 8A[0] MEHR[0] SI[31] ABS[29] SR[17] SP[14]
!! ST[7] 2k[7] 2g[17] 3k[0] 3g[3] 4d[0] 4ü[0] 5d[3] 6k[0] 6g[0]
!! 7k[0] 7g[0] 8d[0] mehr[0] si[31] dm[0] sr[24] sp[7]
!! 1F[90] 2F[10] 3F[0] 4F[0] LF[0] 2P[0] 3P[0] 4P[0] TRI[0] DF[2] AB[30]
!! TF[0] U3K[0] U3[0] U4[0] U4Ü[0] U5[7] U6K[0] U6[0] U7K[0] U7[3]
!! N1[23] N2K[0] N2[27] N3K[0] N3[13] N4[7] N4Ü[0] N5[13] N6K[0] N6[7]
!!!n7k: 0] N7[0] O1[0] O2K[0] O2[0] O3K[0] O3[0] HÖ[0
